X:19043
T:She'll be Coming Round the Mountain
R:Reel
C:Trad.
O:USA
Z:Paul Hardy's Session Tunebook 2015 (see www.paulhardy.net). Creative Commons cc by-nc-sa licenced.
M:4/4
L:1/4
Q:1/4=190
K:D
AB|"D"dd dd|BA FA|d4-|d2 de|ff ff|aa af|"E7"e4-|"A7"e2 ag|
"D"ff f2|"D7"ed3|"G"dd d2|"Gm"gg2g|"D"ff f2|"E7"ee "A7"ee|"D"d4-|d2|]

